X:1
T:Title
L:1/8
M:6/8
K:A
V:1 treble nm="Grand Piano"
V:1
 z3 z2 E | E2 E C2 F | E2 E C2 F | E2 C D2 E | F3- F2 F | F2 F D2 G | F2 F D2 G | F2 D E2 F | %8
 G3- G2 G | A2 A G2 A | G2 G G2 G | A2 G A2 B | c3- c2 c | d2 d B2 B | c2 c A2 A | G2 G A2 B | %16
 A3 A3 | A2 A ^E2 B | A2 A ^E2 A | B2 B A2 G | A6 |] %21

